svgs/sharp-regular/up-down-left-right.svg

<svg xmlns="http://www.w3.org/2000/svg" viewBox="0 0 512 512"><!--! Font Awesome Pro 6.6.0 by @fontawesome - https://fontawesome.com License - https://fontawesome.com/license (Commercial License) Copyright 2024 Fonticons, Inc. --><path d="M160 144l0-48 62.1-62.1L256 0l33.9 33.9L352 96l0 48-48 0-24 0 0 88 88 0 0-24 0-48 48 0 62.1 62.1L512 256l-33.9 33.9L416 352l-48 0 0-48 0-24-88 0 0 88 24 0 48 0 0 48-62.1 62.1L256 512l-33.9-33.9L160 416l0-48 48 0 24 0 0-88-88 0 0 24 0 48-48 0L33.9 289.9 0 256l33.9-33.9L96 160l48 0 0 48 0 24 88 0 0-88-24 0-48 0zM284.1 96L256 67.9 227.9 96l56.2 0zM67.9 256L96 284.1l0-56.2L67.9 256zM284.1 416l-56.2 0L256 444.1 284.1 416zm160-160L416 227.9l0 56.2L444.1 256z"/></svg>

<svg xmlns="http://www.w3.org/2000/svg" viewBox="0 0 512 512"><!--! Font Awesome Pro 6.4.2 by @fontawesome - https://fontawesome.com License - https://fontawesome.com/license (Commercial License) Copyright 2023 Fonticons, Inc. --><path d="M160 144V96l62.1-62.1L256 0l33.9 33.9L352 96v48l-48 0H280v88h88V208 160h48l62.1 62.1L512 256l-33.9 33.9L416 352H368V304 280H280v88h24 48v48l-62.1 62.1L256 512l-33.9-33.9L160 416V368h48 24V280H144v24 48H96L33.9 289.9 0 256l33.9-33.9L96 160h48v48 24h88V144H208 160zM284.1 96L256 67.9 227.9 96l56.2 0zM67.9 256L96 284.1V227.9L67.9 256zM284.1 416H227.9L256 444.1 284.1 416zm160-160L416 227.9v56.2L444.1 256z"/></svg>
